X:1
T:Daily Exercises for Flute, Op. 5, No. 2 
T:(without original slurs on all)
T:M.A.Reichert
L:1/8
M:2/4
K:C
V:1 treble nm="Oboe"
V:1
!8va(! c/e/g/c'/!8va)! | B/G/F/D/ F/G/B/d/ | c/G/E/C/ E/G/c/e/ | d/B/G/F/ G/B/d/f/ | %4
 e/c/G/E/ G/c/e/g/ |!8va(! f'/d'/b/g/ b/d'/f'/a'/!8va)! | g/e/c/G/ E/G/c/e/ | d/B/G/F/ D/F/G/B/ | %8
 c z A/c/e/a/ | ^g/e/d/B/ d/e/g/b/ | a/e/c/A/ c/e/a/c'/ | b/^g/e/d/ e/g/b/d'/ | %12
 c'/a/e/c/ e/a/c'/e'/ | d'/b/^g/e/ g/b/d'/f'/ | e'/c'/a/e/ c/e/a/c'/ | b/^g/e/d/ B/d/e/g/ | %16
 a z F/A/c/f/ ||[K:F] e/c/B/G/ B/c/e/g/ | f/c/A/F/ A/c/f/a/ | g/e/c/B/ c/e/g/b/ | %20
 a/f/c/A/ c/f/a/c'/ | b/g/e/c/ e/g/b/d'/ | c'/a/f/c/ A/c/f/a/ | g/e/c/B/ G/B/c/e/ | %24
 f z!8va(! d/f/a/d'/!8va)! |!8va(! ^c'/a/g/e/ g/a/c'/e'/!8va)! | d/A/F/D/ F/A/d/f/ | %27
 e/^c/A/G/ A/c/e/g/ | f/d/A/F/ A/d/f/a/ |!8va(! g'/e'/^c'/a/ c'/e'/g'/b'/!8va)! | %30
 a/f/d/A/ F/A/d/f/ | e/^c/A/G/ E/G/A/c/ | d z B/d/f/b/ ||[K:Bb] a/f/e/c/ e/f/a/c'/ | %34
 b/f/d/B/ d/f/b/d'/ | c'/a/f/e/ f/a/c'/e'/ | d'/b/f/d/ f/b/d'/f'/ | e'/c'/a/f/ a/c'/e'/g'/ | %38
 f'/d'/b/f/ d/f/b/d'/ | c'/a/f/e/ c/e/f/a/ | b z G/B/d/g/ | ^f/d/c/A/ c/d/f/a/ | %42
 g/d/B/G/ B/d/g/b/ | a/^f/d/c/ d/f/a/c'/ | b/g/d/B/ d/g/b/d'/ | c'/a/^f/d/ f/a/c'/e'/ | %46
 d'/b/g/d/ B/d/g/b/ | a/^f/d/c/ A/c/d/f/ | g z E/G/B/e/ ||[K:Eb] d/B/A/F/ A/B/d/f/ | %50
 e/B/G/E/ G/B/e/g/ | f/d/B/A/ B/d/f/a/ | g/e/B/G/ B/e/g/b/ | a/f/d/B/ d/f/a/c'/ | %54
 b/g/e/B/ G/B/e/g/ | f/d/B/A/ F/A/B/d/ | e z!8va(! c/e/g/c'/!8va)! | %57
!8va(! =b/g/f/d/ f/g/b/d'/!8va)! | c/G/E/C/ E/G/c/e/ | d/=B/G/F/ G/B/d/f/ | e/c/G/E/ G/c/e/g/ | %61
!8va(! f'/d'/=b/g/ b/d'/f'/a'/!8va)! | g/e/c/G/ E/G/c/e/ | d/=B/G/F/ D/F/G/B/ | c z A/c/e/a/ || %65
[K:Ab] g/e/d/B/ d/e/g/b/ | a/e/c/A/ c/e/a/c'/ | b/g/e/d/ e/g/b/d'/ | c'/a/e/c/ e/a/c'/e'/ | %69
 d'/b/g/e/ g/b/d'/f'/ | e'/c'/a/e/ c/e/a/c'/ | b/g/e/d/ B/d/e/g/ | a z F/A/c/f/ | %73
 =e/c/B/G/ B/c/e/g/ | f/c/A/F/ A/c/f/a/ | g/=e/c/B/ c/e/g/b/ | a/f/c/A/ c/f/a/c'/ | %77
 b/g/=e/c/ e/g/b/d'/ | c'/a/f/c/ A/c/f/a/ | g/=e/c/B/ G/B/c/e/ | f z D/!8va(!f/a/d'/!8va)! || %81
[K:Db]!8va(! c'/a/g/e/ g/a/c'/e'/!8va)! | d/A/F/D/ F/A/d/f/ | e/c/A/G/ A/c/e/g/ | %84
 f/d/A/F/ A/d/f/a/ |!8va(! g'/e'/c'/a/ c'/e'/g'/b'/!8va)! | a/f/d/A/ F/A/d/f/ | e/c/A/G/ E/G/A/c/ | %88
 d z B/d/f/b/ | =a/f/e/c/ e/f/a/c'/ | b/f/d/B/ d/f/b/d'/ | c'/=a/f/e/ f/a/c'/e'/ | %92
 d'/b/f/d/ f/b/d'/f'/ | e'/c'/=a/f/ a/c'/e'/g'/ | f'/d'/b/f/ d/f/b/d'/ | c'/=a/f/e/ c/e/f/a/ | %96
 b z G/B/d/g/ ||[K:Gb] f/d/c/A/ c/d/f/a/ | g/d/B/G/ B/d/g/b/ | a/f/d/c/ d/f/a/c'/ | %100
 b/g/d/B/ d/g/b/d'/ | c'/a/f/d/ f/a/c'/e'/ | d'/b/g/d/ B/d/g/b/ | a/f/d/c/ A/c/d/f/ | %104
 g z E/G/B/e/ | =d/B/A/F/ A/B/d/f/ | e/B/G/E/ G/B/e/g/ | f/=d/B/A/ B/d/f/a/ | g/e/B/G/ B/e/g/b/ | %109
 a/f/=d/B/ d/f/a/c'/ | b/g/e/B/ G/B/e/g/ | f/=d/B/A/ F/A/B/d/ | e z B/^d/^f/b/ || %113
[K:B] a/f/e/c/ e/f/a/c'/ | b/f/d/B/ d/f/b/d'/ | c'/a/f/e/ f/a/c'/e'/ | d'/b/f/d/ f/b/d'/f'/ | %117
 e'/c'/a/f/ a/c'/e'/g'/ | f'/d'/b/f/ d/f/b/d'/ | c'/a/f/e/ c/e/f/a/ | b z G/B/d/g/ | %121
 ^^f/d/c/A/ c/d/f/a/ | g/d/B/G/ B/d/g/b/ | a/^^f/d/c/ d/f/a/c'/ | b/g/d/B/ d/g/b/d'/ | %125
 c'/a/^^f/d/ f/a/c'/e'/ | d'/b/g/d/ B/d/g/b/ | a/^^f/d/c/ A/c/d/f/ | g z E/G/B/e/ || %129
[K:E] d/B/A/F/ A/B/d/f/ | e/B/G/E/ G/B/e/g/ | f/d/B/A/ B/d/f/a/ | g/e/B/G/ B/e/g/b/ | %133
 a/f/d/B/ d/f/a/c'/ | b/g/e/B/ G/B/e/g/ | f/d/B/A/ F/A/B/d/ | e z!8va(! c/e/g/c'/!8va)! | %137
!8va(! ^b/g/f/d/ f/g/b/d'/!8va)! | c/G/E/C/ E/G/c/e/ | d/^B/G/F/ G/B/d/f/ | e/c/G/E/ G/c/e/g/ | %141
!8va(! f'/d'/^b/g/ b/d'/f'/a'/!8va)! | g/e/c/G/ E/G/c/e/ | d/^B/G/F/ D/F/G/B/ | c z A/c/e/a/ || %145
[K:A] g/e/d/B/ d/e/g/b/ | a/e/c/A/ c/e/a/c'/ | b/g/e/d/ e/g/b/d'/ | c'/a/e/c/ e/a/c'/e'/ | %149
 d'/b/g/e/ g/b/d'/f'/ | e'/c'/a/e/ c/e/a/c'/ | b/g/e/d/ B/d/e/g/ | a z F/A/c/f/ | %153
 ^e/c/B/G/ B/c/e/g/ | f/c/A/F/ A/c/f/a/ | g/^e/c/B/ c/e/g/b/ | a/f/c/A/ c/f/a/c'/ | %157
 b/g/^e/c/ e/g/b/d'/ | c'/a/f/c/ A/c/f/a/ | g/^e/c/B/ G/B/c/e/ | f z D/F/A/d/ || %161
[K:D] c/A/G/E/ G/A/c/e/ | d/A/F/D/ F/A/d/f/ | e/c/A/G/ A/c/e/g/ | f/d/A/F/ A/d/f/a/ | %165
 g/e/c/A/ c/e/g/b/ | a/f/d/A/ F/A/d/f/ | e/c/A/G/ E/G/A/c/ | d z B/d/f/b/ | ^a/f/e/c/ e/f/a/c'/ | %170
 b/f/d/B/ d/f/b/d'/ | c'/^a/f/e/ f/a/c'/e'/ | d'/b/f/d/ f/b/d'/f'/ | e'/c'/^a/f/ a/c'/e'/g'/ | %174
 f'/d'/b/f/ d/f/b/d'/ | c'/^a/f/e/ c/e/f/a/ | b z G/B/d/g/ ||[K:G] f/d/c/A/ c/d/f/a/ | %178
 g/d/B/G/ B/d/g/b/ | a/f/d/c/ d/f/a/c'/ | b/g/d/B/ d/g/b/d'/ | c'/a/f/d/ f/a/c'/e'/ | %182
 d'/b/g/d/ B/d/g/b/ | a/f/d/c/ A/c/d/f/ | g z E/G/B/e/ | ^d/B/A/F/ A/B/d/f/ | e/B/G/E/ G/B/e/g/ | %187
 f/^d/B/A/ B/d/f/a/ | g/e/B/G/ B/e/g/b/ | a/f/^d/B/ d/f/a/c'/ | b/g/e/B/ G/B/e/g/ | %191
 f/^d/B/A/ F/A/B/d/ | e z z2 |] %193

